!!!OTL: 1185. Neujahr-Ansingelied.
!!!ARE: Europa, Mitteleuropa, Deutschland, Mittel - Franken, Ziegelanger
!!!SCT: E1185
!!!TXL: @@DE
!!!YEM: Copyright 1995, estate of Helmut Schaffrath.
**kern	**text
*ICvox	*
*M4/4	*
*met(c)	*
*k[f#]	*
*G:	*
!LO:TX:a:t=v. Ditſurth, fränk. Volkslieder II, Nr. 379.	!
{(8gL	Was
8bJ)	.
=1	=1
4.dd	wün-
8cc	-ſchen
4b/	wir
4a	dem
=2	=2
4g	Herrn
4b/	ins
4a}	Haus
{8a	für
8a	ein
=3	=3
(8gL	neu-
8bJ)	.
4b/	-es
4a;}	Jahr?
{(8gL	Wir
8bJ)	.
=4	=4
4.dd	wün-
8cc	-ſchen
4b/	ihm
4a	ein
=5	=5
4g	gold-
4b/	-nen
4a	Tiſch,
8r}	.
{8dd	da-
=6	=6
4dd	-rauf
8dd	ſoll
8cc	er
4b	eſ-
8a	-ſen
8a	ge-
=7	=7
4g	-brat-
4b/	-ne
4a	Fiſch,
8r}	.
!LO:TX:a:t=Refr.	!
{8g	Von
=8	=8
8.g	Sil-
16g	-ber
8g	und
8ee	von
4.dd^^	Gold,
8cc	von
=9	=9
8b	Per-
8a	-lein
8b	nicht
8ee	ʒu
4.dd}	fein
{8cc	So
=10	=10
8b/	wünſchen
8b/	.
8a	wir
8a	ein
4b	glück-
8a	-ſe-
8a	-ligs
=11	=11
8b/	neu-
8b/	-es
8a	Jahr
8a	da-
4g	-rein!
8r}	.
{8g	Von
=12	=12
8.g	Sil-
16g	-ber
8g	und
8ee	von
4.dd^^	Gold,
8cc	von
=13	=13
8b	Per-
8a	-lein
8b	nicht
8ee	ʒu
4.dd}	fein
{8cc	So
=14	=14
8b/	wünſchen
8b/	.
8a	wir
8a	ein
4b	glück-
8a	-ſe-
8a	-ligs
=15	=15
8b/	neu-
8b/	-es
8a	Jahr
8a	da-
4g}	-rein!
==	==
!!!AGN: Ansinge -, Brauchtums - Lied, Kirchen - Fest, Neujahr, Silvester
!!!ONB: ESAC (Essen Associative Code) Database: ERK3
!!!AMT: simple quadruple
!!!AIN: vox
!!!EED: Helmut Schaffrath
!!!EEV: 1.0
!!!GTL: Ansingelieder an Volks- und Kirchenfesten.
!!!URL-scan: https://rosdok.uni-rostock.de/mcrviewer/recordIdentifier/rosdok_ppn745177999/iview2/phys_0107.iview2?x=186.74234007583254&y=2057.9620257784263&scale=0.701185927818147&rotation=0&layout=singlePageLayout
!!!ENC: Anna Maria Matuszewska
!!!EEV: 2024/12/23
*-	*-
